assets/icons/qvision/location_pin.svg

<svg xmlns="http://www.w3.org/2000/svg" enable-background="new 0 0 24 24" height="24" viewBox="0 0 24 24" width="24"><rect fill="none" height="24" width="24"/><path d="M12,2L12,2C8.13,2,5,5.13,5,9c0,1.74,0.5,3.37,1.41,4.84c0.95,1.54,2.2,2.86,3.16,4.4c0.47,0.75,0.81,1.45,1.17,2.26 C11,21.05,11.21,22,12,22h0c0.79,0,1-0.95,1.25-1.5c0.37-0.81,0.7-1.51,1.17-2.26c0.96-1.53,2.21-2.85,3.16-4.4 C18.5,12.37,19,10.74,19,9C19,5.13,15.87,2,12,2z M12,11.75c-1.38,0-2.5-1.12-2.5-2.5s1.12-2.5,2.5-2.5s2.5,1.12,2.5,2.5 S13.38,11.75,12,11.75z"/></svg>

<svg width="24" height="24" viewBox="0 0 24 24" fill="none" xmlns="http://www.w3.org/2000/svg">
<g clip-path="url(#clip0_147_5464)">
<path d="M12 2C8.13 2 5 5.13 5 9C5 10.74 5.5 12.37 6.41 13.84C7.36 15.38 8.61 16.7 9.57 18.24C10.04 18.99 10.38 19.69 10.74 20.5C11 21.05 11.21 22 12 22C12.79 22 13 21.05 13.25 20.5C13.62 19.69 13.95 18.99 14.42 18.24C15.38 16.71 16.63 15.39 17.58 13.84C18.5 12.37 19 10.74 19 9C19 5.13 15.87 2 12 2ZM12 11.75C10.62 11.75 9.5 10.63 9.5 9.25C9.5 7.87 10.62 6.75 12 6.75C13.38 6.75 14.5 7.87 14.5 9.25C14.5 10.63 13.38 11.75 12 11.75Z" fill="#323232"/>
</g>
<defs>
<clipPath id="clip0_147_5464">
<rect width="24" height="24" fill="white"/>
</clipPath>
</defs>
</svg>
